X:1
T:Title
%%score { ( 1 3 5 ) | ( 2 4 ) }
L:1/8
Q:1/4=100
M:4/4
K:Eb
V:1 treble nm="Grand Piano"
V:3 treble 
V:5 treble 
V:2 bass 
V:4 bass 
V:1
 [Ge]2 [Ge]>[Af] [Ge]2 G>A | B2 [DB]>[DB] E3 E | c2 c>c c2 c>[Fc] | [Ff]2 [Fe]>[Fe] [Fd]3 B | %4
w: Chas.~H.~Gabriel * * * * *||||
 [Ge]2 [Ge]>[Af] [Ge]2 [EG]>[GB] | c2 c>d c2 F>F | B2 c>c d2 e>[B=e] | %7
w: |||
[M:5/4] [Bf]2 d>B c3 [B,DB]3 |[M:4/4] z4 c2 z2 | z4 c2 z2 | z4 c2 z2 | [Gc]2 [Gd]2 [Gc]2 [EG]2 | %12
w: |||||
 [FB]2 c2 d d2 d | z4 f4- | f6 z2 | [=Af]2 [Af]4 z2 | f2 f2 f2 [Ad][Ad] | %17
w: |||||
 [Ge][Ge] [Ge]2 [Ge]2 [EGB]2 | [FAd]2 [FAd]2 [FAd]2 [DFA][DFA] | z4 z2 B2 | z2 e6 | e2 e6 | %22
w: |||||
 g4 [Ge]2 [Ge]2 | [DAf]4 [Ge]4 |] %24
w: ||
V:2
 [E,B,]2 [E,B,]>[E,B,] [E,B,]2 G,>A, | B,2 [B,,A,]>[B,,A,] [E,G,]3 [E,G,] | %2
 [A,E]2 [G,B,=E]>[G,B,E] [F,A,F]2 [F,=A,F]>[E,A,] | [D,B,]2 [C,=A,]>[C,A,] [B,,B,]3 [B,A] | %4
 [E,B,]2 [E,B,]>[E,B,] [E,B,]2 [E,B,]>[E,E] | [A,EA]2 [A,EA]>[A,EA] [=A,EF]2 [A,E]>[A,E] | %6
 [B,DF]2 [=A,CF]>[A,CF] [_A,B,F]2[K:bass] [G,B,E]>[_G,_D] | %7
[M:5/4] [F,D]2 [F,B,F]>[F,B,D] [F,=A,E]3 B,,3 |[M:4/4] B,,2 B,,2 z2[K:treble] d2 | %9
 B,,2 B,,2 z2[K:treble] d2 | B,,2 B,,2 z2[K:treble] d2 | [E,E]2 [E,E]2 [E,E]2 [E,B,]2 | %12
 [D,B,]2[K:treble] [F,=A,F]2 [B,F] [B,F]2 [B,F] | [CF=A]<[CFA] [_DGB]2 [=DFB]<[DF] [CE]2 | %14
 [B,D]<[B,D] [=A,C]2 [G,C]<[G,C] [C,C]2 | [F,C]2 [F,C]4 z2 | %16
 [B,,DA]2 [B,,DA]2 [B,,DA]2 [B,,B,][B,,B,] | [B,,B,][B,,B,] [B,,B,]2 [B,,B,]2 B,,2 | %18
 B,,2 B,,2 B,,2 B,,B,, | [E,E][E,E] [E,E]2 [E,E]2 [E,E]2 | [_D,B,]2 [D,B,]2 [D,B,]2 [D,B,][D,B,] | %21
 [C,A,][C,A,] [C,A,]2 [=B,,=A,][B,,A,] [B,,A,]2 | [B,,EB]4 [B,,B,]2 [B,,B,]2 | [B,,B,]4 [E,B,]4 |] %24
V:3
 x8 | x8 | x8 | x8 | x8 | x8 | x8 |[M:5/4] x10 |[M:4/4] [DAc]2 [DAc]2 [DA]4 | [DAc]2 [DAc]2 [DA]4 | %10
 [DAc]2 [DAc]2 [DA]4 | x8 | x8 | e<e =e2 z/ B3/2 =A2 | B<B F2 B<[B=e] [Be]2 | x8 | x8 | x8 | x8 | %19
 [Gc][Gc] [Gc]2 [Gc]2 G->[GB] | [Ge]2 G2 G2 G[Ge] | AA A2 _GG z e | x8 | x8 |] %24
V:4
 x8 | x8 | x8 | x8 | x8 | x8 | x6[K:bass] x2 |[M:5/4] x10 |[M:4/4] z4 B,,4[K:treble] | %9
 z4 B,,4[K:treble] | z4 B,,4[K:treble] | x8 | x2[K:treble] x6 | x8 | x8 | x8 | x8 | x8 | x8 | x8 | %20
 x8 | x8 | x8 | x8 |] %24
V:5
 x8 | x8 | x8 | x8 | x8 | x8 | x8 |[M:5/4] x10 |[M:4/4] x8 | x8 | x8 | x8 | x8 | x8 | x8 | x8 | %16
 x8 | x8 | x8 | x8 | x8 | z4 z2 _G2 | x8 | x8 |] %24

